core/images/jm/devicerow-outline-black.svg

<svg xmlns="http://www.w3.org/2000/svg" width="1920" height="810" viewBox="0 0 1920 810"><path fill="#585858" d="M718.1 196.2h-343.1c-5.9 0-10.6 4.7-10.6 10.6v218.7c0 5.9 4.7 10.6 10.6 10.6h129.6c-.2 4.5-.8 10.6-1.5 16.5-1.9 15.8-3.2 15.3-3.6 15.4-1.3.6-5.3 1.2-8.8 1.7-6.2.9-7.2 1.2-7.2 1.7v.9c0 .2 0 .5 1.2.6 0 .3 20 .7 38.2.7h46.6c18.2 0 38.2-.3 38.2-.7 1.2-.1 1.2-.3 1.2-.6v-.9c0-.6-.9-.8-7.2-1.7-3.5-.6-7.5-1.2-8.8-1.7-.2-.1-1.7.5-3.6-15.4-.7-5.9-1.2-12-1.5-16.5h130.3c5.9 0 10.6-4.7 10.6-10.6v-218.7c0-5.9-4.7-10.6-10.6-10.6zm-129.5 256.7c2 17.1 3.5 15.7 3.9 16 1.4.6 5.2 1.2 9 1.7 2.7.5 5.9.9 6.6 1.3v.6c-1.6.5-14.6.7-38.5.7h-47c-23.9 0-36.8-.2-38.5-.7v-.6c.6-.3 3.9-.8 6.6-1.3 3.7-.6 7.6-1.2 9-1.7.5-.2 2 1.2 3.9-16 .7-5.9 1.2-12.1 1.5-16.7h81.9c.3 4.6.9 10.8 1.6 16.7zm139.4-27.3c0 5.4-4.5 9.9-9.9 9.9h-343.1c-5.4 0-9.9-4.5-9.9-9.9v-5h363v5zm0-5.7h-363v-213.1c0-5.4 4.5-9.9 9.9-9.9h343.1c5.4 0 9.9 4.5 9.9 9.9.1 0 .1 213.1.1 213.1zm-14.9-209.1h-333.2c-.6 0-1 .5-1 1v193.2c0 .6.5 1 1 1h333.1c.6 0 1-.5 1-1v-193.2c.1-.6-.3-1-.9-1zm0 194.2h-333.2v-193.2h333.1v193.2z"/><path opacity=".2" fill="#585858" enable-background="new" d="M379.8 211.7h333.4v193.4h-333.4z"/><path fill="#585858" d="M1553.1 250.9c-1.7-1.7-4-2.7-6.6-2.7h-132.2c-2.3 0-4.6.9-6.4 2.7-1.7 1.7-2.7 4-2.7 6.5v207.3c0 5 4.4 9.1 9.8 9.1h130.7c2.7 0 5.1-.9 6.9-2.7s2.9-4.2 2.9-6.8v-206.9c.3-2.4-.6-4.8-2.4-6.5zm2 213.4c0 5.2-4.2 8.8-9.1 8.8h-130.7c-5.1 0-9.1-3.8-9.1-8.4v-207.3c0-4.6 3.8-8.4 8.2-8.4h132.2c4.9 0 8.6 3.8 8.6 8.4v206.9zm-8.6-214.3h-132.2c-1.9 0-3.7.8-5.1 2.2-1.4 1.4-2.2 3.2-2.2 5.2v207.3c0 4 3.6 7.4 8.1 7.4h130.7c2.2 0 4.2-.8 5.7-2.2 1.5-1.4 2.4-3.5 2.4-5.7v-206.8c0-2-.8-3.8-2.2-5.2-1.2-1.4-3.2-2.2-5.2-2.2zm6.9 214.3c0 2-.8 3.8-2.2 5.1-1.4 1.3-3.2 2-5.2 2h-130.7c-4 0-7.4-3-7.4-6.7v-207.3c0-1.7.7-3.5 2-4.7s2.9-2 4.6-2h132.1c1.9 0 3.6.7 4.9 2 1.3 1.3 2 2.9 2 4.7-.1 0-.1 206.9-.1 206.9zm-8.1-204.6h-129.1c-.5 0-.9.3-.9.8v192.7c0 .5.3.8.9.8h129c.5 0 .9-.3.9-.8v-192.6c0-.4-.4-.9-.8-.9zm0 193.6h-129.1v-192.7h129v192.7h.1zm-63.9 4.1c-2.9 0-5.2 2.3-5.2 5.2v.1c.1 2.8 2.3 5.1 5.2 5.1 2.9 0 5.2-2.3 5.2-5.2 0-2.9-2.3-5.2-5.2-5.2zm0 9.7c-1.2 0-2.3-.5-3.1-1.3-.8-.8-1.3-2-1.4-3.1v-.1c0-2.5 2-4.5 4.5-4.5s4.5 2.1 4.5 4.5c0 2.5-2 4.5-4.5 4.5z"/><path opacity=".2" fill="#585858" enable-background="new" d="M1416 259.9h129.1v192.9h-129.1z"/><path fill="#585858" d="M1309.9 337.9c-1.9-1.9-4.4-2.9-7.2-2.9h-49.3c-2.7 0-5.2 1-7.2 2.9-1.9 1.9-3 4.4-3 7.2v118.7c0 2.7 1 5.2 3 7.2 1.9 1.9 4.4 2.9 7.2 2.9h49.3c2.7 0 5.2-1 7.2-2.9 1.9-1.9 3-4.4 3-7.2v-118.7c-.2-2.7-1.2-5.2-3-7.2zm-65.9 10.4h.7v112.3h-.7v-112.3zm68.1 115.4c0 2.5-.9 4.9-2.8 6.6-1.7 1.7-4.2 2.8-6.6 2.8h-49.3c-2.5 0-4.9-.9-6.6-2.8-1.7-1.7-2.8-4.2-2.8-6.6v-2.1h.7v2.1c0 4.7 3.9 8.7 8.7 8.7h49.3c4.7 0 8.7-3.9 8.7-8.7v-2.1h.7v2.1zm-66.7 0v-118.6c0-4.4 3.6-8 8-8h49.3c4.4 0 8 3.6 8 8v118.7c0 4.4-3.6 8-8 8h-49.3c-4.4-.1-8-3.7-8-8.1zm66.7-3.1h-.7v-112.3h.7v112.3zm0-113.3h-.7v-2.2c0-4.7-3.9-8.7-8.7-8.7h-49.3c-4.7 0-8.7 3.9-8.7 8.7v2.2h-.7v-2.2c0-2.5.9-4.9 2.8-6.6 1.7-1.7 4.2-2.8 6.6-2.8h49.3c2.5 0 4.9.9 6.6 2.8 1.7 1.7 2.8 4.2 2.8 6.6v2.2zm-38.2-1.5h9.5c.7 0 1.3-.6 1.3-1.3 0-.7-.6-1.3-1.3-1.3h-9.5c-.7 0-1.3.6-1.3 1.3 0 .7.6 1.3 1.3 1.3zm0-2h9.5c.3 0 .6.2.6.6 0 .3-.2.6-.6.6h-9.5c-.3 0-.6-.2-.6-.6 0-.3.2-.6.6-.6zm-25.4 110.6h58.8c.3 0 .7-.3.7-.7v-100.9c0-.3-.3-.7-.7-.7h-58.8c-.3 0-.7.3-.7.7v100.9c.1.3.4.7.7.7zm0-101.6h58.8v100.9h-58.8v-100.9zm30.2 104.5c-2.9 0-5.2 2.3-5.2 5.2 0 2.9 2.3 5.2 5.2 5.2 2.9 0 5.2-2.3 5.2-5.2-.1-2.9-2.4-5.2-5.2-5.2zm0 9.7c-2.5 0-4.5-2.1-4.5-4.5 0-2.5 2.1-4.5 4.5-4.5 2.5 0 4.5 2.1 4.5 4.5.1 2.5-2 4.5-4.5 4.5z"/><path opacity=".2" fill="#585858" enable-background="new" d="M1248.5 352.8h59.1v101h-59.1z"/><path fill="#585858" d="M1150.3 463.2h-30.3c.3-1 .6-2.1.6-3.2v-155.4c0-5.6-4.5-10.1-10.1-10.1h-248.8c-5.6 0-10.1 4.5-10.1 10.1v155.4c0 1.2.2 2.2.6 3.2h-30.5c-.2 0-.5.2-.5.5v5.1c0 .1 0 .6.3.8l.3.2c2.3 1.6 8 3.9 14.3 3.9h299.6c6.4 0 12.1-2.3 14.3-3.9.1-.1.2-.2.3-.2.3-.2.3-.6.3-.7v-5.2c.3-.2.1-.5-.3-.5zm-297.8-158.6c0-5.1 4.2-9.4 9.4-9.4h248.8c5.1 0 9.4 4.2 9.4 9.4v155.4c0 1.2-.2 2.2-.6 3.2h-27.2v-.1l-.8-3.6h24.3c2 0 3.5-1.5 3.5-3.5v-151.5c0-4.5-3.7-8.3-8.3-8.3h-249.4c-4.5 0-8.3 3.7-8.3 8.3v151.5c0 2 1.5 3.5 3.5 3.5h23.5l-.8 3.6v.1h-26.5c-.3-1-.6-2.1-.6-3.2v-155.4h.1zm27.7 158.6l.8-3.7h209.5l.8 3.7h-211.1zm128.6.7c-.2 1.2-1.3 3-3.2 3h-38.8c-2 0-3-1.9-3.2-3h45.2zm-151.9-5.1c-1.5 0-2.8-1.3-2.8-2.8v-151.5c0-4.2 3.4-7.6 7.6-7.6h249c4.2 0 7.6 3.4 7.6 7.6v151.5c0 1.5-1.3 2.8-2.8 2.8h-258.6zm279 14.3h-299.6c-5.4 0-10.3-1.7-13-3.1h325.5c-2.6 1.4-7.5 3.1-12.9 3.1zm14.3-4.1v.2l-.2.2h-327.8l-.2-.1c-.1 0-.1-.1-.1-.3v-5h140.9c.2 1.4 1.6 3.7 3.9 3.7h38.8c2.3 0 3.7-2.3 3.9-3.7h140.8v5zm-38.8-163.7h-250.6c-.5 0-.8.3-.8.9v146c0 .5.3.9.8.9h250.6c.5 0 .8-.3.8-.9v-146.1c0-.5-.4-.8-.8-.8zm0 146.9h-250.6v-146.1h250.6v146.1z"/><path opacity=".2" fill="#585858" enable-background="new" d="M860.8 306.2h250.7v146h-250.7z"/><path fill="#585858" d="M591.6 287.5l-54.3 54.3c-1.4 1.4-3.6 1.4-5 0l-1-1-1.2-1.2-5.1-5.1s0-.1-.1-.1l-23.5-23.7c-1.4-1.4-1.4-3.6 0-5l7.4-7.4c1.4-1.4 3.6-1.4 5 0l21.2 21.3 44.4-44.4c1.4-1.4 3.6-1.4 5 0l7.4 7.4c1.1 1.3 1.1 3.5-.2 4.9zM1019.4 363.7l-40 40c-1 1-2.7 1-3.6 0l-.8-.8-1-.9-3.8-3.8v-.2l-17.4-17.5c-1-1-1-2.7 0-3.6l5.4-5.4c1-1 2.7-1 3.6 0l15.6 15.7 32.7-32.7c1-1 2.7-1 3.6 0l5.4 5.4c1.2 1.1 1.2 2.7.3 3.8zM1506.2 349.6l-29.7 29.7c-.7.7-2 .7-2.7 0l-.6-.6-.7-.7-2.8-2.8v-.1l-12.8-13c-.7-.7-.7-2 0-2.7l4-4c.7-.7 2-.7 2.7 0l11.6 11.7 24.3-24.3c.7-.7 2-.7 2.7 0l4 4c.7.8.7 2 0 2.8zM1294.8 395.5l-20.4 20.4c-.5.5-1.4.5-1.9 0l-.5-.5-.5-.5-2-2-8.8-8.9c-.5-.5-.5-1.4 0-1.9l2.8-2.8c.5-.5 1.4-.5 1.9 0l7.9 8 16.7-16.7c.5-.5 1.4-.5 1.9 0l2.8 2.8c.7.7.7 1.5.1 2.1z"/></svg>

<?xml version="1.0" encoding="utf-8"?>
<!-- Generator: Adobe Illustrator 18.0.0, SVG Export Plug-In . SVG Version: 6.00 Build 0)  -->
<!DOCTYPE svg PUBLIC "-//W3C//DTD SVG 1.1//EN" "http://www.w3.org/Graphics/SVG/1.1/DTD/svg11.dtd">
<svg version="1.1" id="Ebene_1" xmlns="http://www.w3.org/2000/svg" xmlns:xlink="http://www.w3.org/1999/xlink" x="0px" y="0px" width="1920" height="810"
	 viewBox="0 0 1920 810" enable-background="new 0 0 1920 810" xml:space="preserve">
<g>
	<g>
		<g>
			<path fill="#585858" d="M718.1,196.2H375c-5.9,0-10.6,4.7-10.6,10.6v218.7c0,5.9,4.7,10.6,10.6,10.6h129.6
				c-0.2,4.5-0.8,10.6-1.5,16.5c-1.9,15.8-3.2,15.3-3.6,15.4c-1.3,0.6-5.3,1.2-8.8,1.7c-6.2,0.9-7.2,1.2-7.2,1.7v0.9
				c0,0.2,0,0.5,1.2,0.6c0,0.3,20,0.7,38.2,0.7c9.1,0,17.9,0,23.3,0c5.3,0,14.1,0,23.3,0c18.2,0,38.2-0.3,38.2-0.7
				c1.2-0.1,1.2-0.3,1.2-0.6v-0.9c0-0.6-0.9-0.8-7.2-1.7c-3.5-0.6-7.5-1.2-8.8-1.7c-0.2-0.1-1.7,0.5-3.6-15.4
				c-0.7-5.9-1.2-12-1.5-16.5h130.3c5.9,0,10.6-4.7,10.6-10.6V206.8C728.7,200.9,724,196.2,718.1,196.2z M588.6,452.9
				c2,17.1,3.5,15.7,3.9,16c1.4,0.6,5.2,1.2,9,1.7c2.7,0.5,5.9,0.9,6.6,1.3v0.6c-1.6,0.5-14.6,0.7-38.5,0.7c-5.7,0-11,0-15.7,0
				c-3,0-5.6,0-7.8,0c-2.1,0-4.7,0-7.8,0c-4.7,0-10.1,0-15.7,0c-23.9,0-36.8-0.2-38.5-0.7v-0.6c0.6-0.3,3.9-0.8,6.6-1.3
				c3.7-0.6,7.6-1.2,9-1.7c0.5-0.2,2,1.2,3.9-16c0.7-5.9,1.2-12.1,1.5-16.7h81.9C587.3,440.8,587.9,447,588.6,452.9z M728,425.6
				c0,5.4-4.5,9.9-9.9,9.9H375c-5.4,0-9.9-4.5-9.9-9.9v-5h363V425.6z M728,419.9H365V206.8c0-5.4,4.5-9.9,9.9-9.9h343.1
				c5.4,0,9.9,4.5,9.9,9.9C728,206.8,728,419.9,728,419.9z M713.1,210.8H379.9c-0.6,0-1,0.5-1,1V405c0,0.6,0.5,1,1,1h333.1
				c0.6,0,1-0.5,1-1V211.8C714.1,211.2,713.7,210.8,713.1,210.8z M713.1,405H379.9V211.8h333.1V405z"/>
		</g>
	</g>
	<rect x="379.8" y="211.7" opacity="0.2" fill="#585858" enable-background="new    " width="333.4" height="193.4"/>
</g>
<g>
	<g>
		<g>
			<path fill="#585858" d="M1553.1,250.9c-1.7-1.7-4-2.7-6.6-2.7h-132.2c-2.3,0-4.6,0.9-6.4,2.7c-1.7,1.7-2.7,4-2.7,6.5v207.3
				c0,5,4.4,9.1,9.8,9.1h130.7c2.7,0,5.1-0.9,6.9-2.7s2.9-4.2,2.9-6.8V257.4C1555.8,255,1554.9,252.6,1553.1,250.9z M1555.1,464.3
				c0,5.2-4.2,8.8-9.1,8.8h-130.7c-5.1,0-9.1-3.8-9.1-8.4V257.4c0-4.6,3.8-8.4,8.2-8.4h132.2c4.9,0,8.6,3.8,8.6,8.4V464.3z
				 M1546.5,250h-132.2c-1.9,0-3.7,0.8-5.1,2.2c-1.4,1.4-2.2,3.2-2.2,5.2v207.3c0,4,3.6,7.4,8.1,7.4h130.7c2.2,0,4.2-0.8,5.7-2.2
				c1.5-1.4,2.4-3.5,2.4-5.7V257.4c0-2-0.8-3.8-2.2-5.2C1550.5,250.8,1548.5,250,1546.5,250z M1553.4,464.3c0,2-0.8,3.8-2.2,5.1
				c-1.4,1.3-3.2,2-5.2,2h-130.7c-4,0-7.4-3-7.4-6.7V257.4c0-1.7,0.7-3.5,2-4.7s2.9-2,4.6-2h132.1c1.9,0,3.6,0.7,4.9,2
				c1.3,1.3,2,2.9,2,4.7C1553.4,257.4,1553.4,464.3,1553.4,464.3z M1545.3,259.7h-129.1c-0.5,0-0.9,0.3-0.9,0.8v192.7
				c0,0.5,0.3,0.8,0.9,0.8h129c0.5,0,0.9-0.3,0.9-0.8V260.6C1546.1,260.2,1545.7,259.7,1545.3,259.7z M1545.3,453.3h-129.1V260.6
				h129v192.7H1545.3z M1481.4,457.4c-2.9,0-5.2,2.3-5.2,5.2v0.1c0.1,2.8,2.3,5.1,5.2,5.1c2.9,0,5.2-2.3,5.2-5.2
				C1486.6,459.7,1484.3,457.4,1481.4,457.4z M1481.4,467.1c-1.2,0-2.3-0.5-3.1-1.3c-0.8-0.8-1.3-2-1.4-3.1l0,0c0,0,0,0,0-0.1
				c0-2.5,2-4.5,4.5-4.5c2.5,0,4.5,2.1,4.5,4.5C1485.9,465.1,1483.9,467.1,1481.4,467.1z"/>
		</g>
	</g>
	<rect x="1416" y="259.9" opacity="0.2" fill="#585858" enable-background="new    " width="129.1" height="192.9"/>
</g>
<g>
	<g>
		<path fill="#585858" d="M1309.9,337.9c-1.9-1.9-4.4-2.9-7.2-2.9h-49.3c-2.7,0-5.2,1-7.2,2.9c-1.9,1.9-3,4.4-3,7.2v118.7
			c0,2.7,1,5.2,3,7.2c1.9,1.9,4.4,2.9,7.2,2.9h49.3c2.7,0,5.2-1,7.2-2.9c1.9-1.9,3-4.4,3-7.2V345.1
			C1312.7,342.4,1311.7,339.9,1309.9,337.9z M1244,348.3h0.7v112.3h-0.7V348.3z M1312.1,463.7c0,2.5-0.9,4.9-2.8,6.6
			c-1.7,1.7-4.2,2.8-6.6,2.8h-49.3c-2.5,0-4.9-0.9-6.6-2.8c-1.7-1.7-2.8-4.2-2.8-6.6v-2.1h0.7v2.1c0,4.7,3.9,8.7,8.7,8.7h49.3
			c4.7,0,8.7-3.9,8.7-8.7v-2.1h0.7C1312.1,461.7,1312.1,463.7,1312.1,463.7z M1245.4,463.7V345.1c0-4.4,3.6-8,8-8h49.3
			c4.4,0,8,3.6,8,8v118.7c0,4.4-3.6,8-8,8h-49.3C1249,471.7,1245.4,468.1,1245.4,463.7z M1312.1,460.6h-0.7V348.3h0.7V460.6z
			 M1312.1,347.3h-0.7v-2.2c0-4.7-3.9-8.7-8.7-8.7h-49.3c-4.7,0-8.7,3.9-8.7,8.7v2.2h-0.7v-2.2c0-2.5,0.9-4.9,2.8-6.6
			c1.7-1.7,4.2-2.8,6.6-2.8h49.3c2.5,0,4.9,0.9,6.6,2.8c1.7,1.7,2.8,4.2,2.8,6.6C1312.1,345.1,1312.1,347.3,1312.1,347.3z
			 M1273.9,345.8h9.5c0.7,0,1.3-0.6,1.3-1.3c0-0.7-0.6-1.3-1.3-1.3h-9.5c-0.7,0-1.3,0.6-1.3,1.3
			C1272.6,345.2,1273.2,345.8,1273.9,345.8z M1273.9,343.8h9.5c0.3,0,0.6,0.2,0.6,0.6c0,0.3-0.2,0.6-0.6,0.6h-9.5
			c-0.3,0-0.6-0.2-0.6-0.6C1273.3,344.1,1273.5,343.8,1273.9,343.8z M1248.5,454.4h58.8c0.3,0,0.7-0.3,0.7-0.7V352.8
			c0-0.3-0.3-0.7-0.7-0.7h-58.8c-0.3,0-0.7,0.3-0.7,0.7v100.9C1247.9,454,1248.2,454.4,1248.5,454.4z M1248.5,352.8h58.8v100.9
			h-58.8V352.8z M1278.7,457.3c-2.9,0-5.2,2.3-5.2,5.2c0,2.9,2.3,5.2,5.2,5.2c2.9,0,5.2-2.3,5.2-5.2
			C1283.8,459.6,1281.5,457.3,1278.7,457.3z M1278.7,467c-2.5,0-4.5-2.1-4.5-4.5c0-2.5,2.1-4.5,4.5-4.5c2.5,0,4.5,2.1,4.5,4.5
			C1283.3,465,1281.2,467,1278.7,467z"/>
	</g>
</g>
<rect x="1248.5" y="352.8" opacity="0.2" fill="#585858" enable-background="new    " width="59.1" height="101"/>
<g>
	<g>
		<g>
			<path fill="#585858" d="M1150.3,463.2H1120c0.3-1,0.6-2.1,0.6-3.2V304.6c0-5.6-4.5-10.1-10.1-10.1H861.7
				c-5.6,0-10.1,4.5-10.1,10.1v155.4c0,1.2,0.2,2.2,0.6,3.2h-30.5c-0.2,0-0.5,0.2-0.5,0.5v5.1c0,0.1,0,0.6,0.3,0.8
				c0.1,0.1,0.2,0.1,0.3,0.2l0,0c2.3,1.6,8,3.9,14.3,3.9h299.6c6.4,0,12.1-2.3,14.3-3.9l0,0c0.1-0.1,0.2-0.2,0.3-0.2
				c0.3-0.2,0.3-0.6,0.3-0.7v-5.2C1150.9,463.5,1150.7,463.2,1150.3,463.2z M852.5,304.6c0-5.1,4.2-9.4,9.4-9.4h248.8
				c5.1,0,9.4,4.2,9.4,9.4v155.4c0,1.2-0.2,2.2-0.6,3.2h-27.2v-0.1l-0.8-3.6h24.3c2,0,3.5-1.5,3.5-3.5V304.5c0-4.5-3.7-8.3-8.3-8.3
				H861.6c-4.5,0-8.3,3.7-8.3,8.3V456c0,2,1.5,3.5,3.5,3.5h23.5l-0.8,3.6v0.1h-26.5c-0.3-1-0.6-2.1-0.6-3.2V304.6H852.5z
				 M880.2,463.2l0.8-3.7h209.5l0.8,3.7H880.2z M1008.8,463.9c-0.2,1.2-1.3,3-3.2,3h-38.8c-2,0-3-1.9-3.2-3H1008.8z M856.9,458.8
				c-1.5,0-2.8-1.3-2.8-2.8V304.5c0-4.2,3.4-7.6,7.6-7.6h249c4.2,0,7.6,3.4,7.6,7.6V456c0,1.5-1.3,2.8-2.8,2.8H856.9z M1135.9,473.1
				H836.3c-5.4,0-10.3-1.7-13-3.1h325.5C1146.2,471.4,1141.3,473.1,1135.9,473.1z M1150.2,469c0,0.1,0,0.1,0,0.2
				c-0.1,0.1-0.1,0.1-0.2,0.2H822.2c-0.1,0-0.1-0.1-0.2-0.1c-0.1,0-0.1-0.1-0.1-0.3v-5h140.9c0.2,1.4,1.6,3.7,3.9,3.7h38.8
				c2.3,0,3.7-2.3,3.9-3.7h140.8v5H1150.2z M1111.4,305.3H860.8c-0.5,0-0.8,0.3-0.8,0.9v146c0,0.5,0.3,0.9,0.8,0.9h250.6
				c0.5,0,0.8-0.3,0.8-0.9V306.1C1112.2,305.6,1111.8,305.3,1111.4,305.3z M1111.4,452.2H860.8V306.1h250.6
				C1111.4,306.1,1111.4,452.2,1111.4,452.2z"/>
		</g>
	</g>
	<rect x="860.8" y="306.2" opacity="0.2" fill="#585858" enable-background="new    " width="250.7" height="146"/>
</g>
<path fill="#585858" d="M591.6,287.5l-54.3,54.3c-1.4,1.4-3.6,1.4-5,0l-1-1l0,0l-1.2-1.2l-5.1-5.1c0,0,0-0.1-0.1-0.1l-23.5-23.7
	c-1.4-1.4-1.4-3.6,0-5l7.4-7.4c1.4-1.4,3.6-1.4,5,0l21.2,21.3l44.4-44.4c1.4-1.4,3.6-1.4,5,0l7.4,7.4
	C592.9,283.9,592.9,286.1,591.6,287.5z"/>
<path fill="#585858" d="M1019.4,363.7l-40,40c-1,1-2.7,1-3.6,0l-0.8-0.8l0,0L974,402l-3.8-3.8V398l-17.4-17.5c-1-1-1-2.7,0-3.6
	l5.4-5.4c1-1,2.7-1,3.6,0l15.6,15.7l32.7-32.7c1-1,2.7-1,3.6,0l5.4,5.4C1020.3,361,1020.3,362.6,1019.4,363.7z"/>
<path fill="#585858" d="M1506.2,349.6l-29.7,29.7c-0.7,0.7-2,0.7-2.7,0l-0.6-0.6l0,0l-0.7-0.7l-2.8-2.8c0,0,0,0,0-0.1l-12.8-13
	c-0.7-0.7-0.7-2,0-2.7l4-4c0.7-0.7,2-0.7,2.7,0l11.6,11.7l24.3-24.3c0.7-0.7,2-0.7,2.7,0l4,4
	C1506.9,347.6,1506.9,348.8,1506.2,349.6z"/>
<path fill="#585858" d="M1294.8,395.5l-20.4,20.4c-0.5,0.5-1.4,0.5-1.9,0l-0.5-0.5l0,0l-0.5-0.5l-2-2l0,0l-8.8-8.9
	c-0.5-0.5-0.5-1.4,0-1.9l2.8-2.8c0.5-0.5,1.4-0.5,1.9,0l7.9,8l16.7-16.7c0.5-0.5,1.4-0.5,1.9,0l2.8,2.8
	C1295.4,394.1,1295.4,394.9,1294.8,395.5z"/>
</svg>
